X:274
T: TRAURIG SEHEN WIR UNS AN
N: F0480
O: Europa, Mitteleuropa, Deutschland
R: Studenten - Lied, Abschied
M: 3/4
L: 1/16
K: G
 | D2G2G4B4 | AGFGA4z4 |
B2c2d4e4 | d2c2B4z4 |
d2A2A4B4 | dccBB4A4 |
d2A2A4B4 | dccBB4A4 |
d6c2cBAG | G4B2A2G4

@@@ Tune index: 5705
